X: 1
T: Crossing Warness
R: Jig
r:32
M: 6/8
L: 1/8
Z: Mackin
K: Dmaj
DEDd2c | (B3B2) B | AFB AFB | AFD EFE |
DED d2c | (B3B2) B | AFB AFD | EFE D3 :|
|: DED F2 (G | (G3) G2) B| AFd AFd|AFD EFE |
DED F2 (G | (G3) G2) B| AFd AFD| EFE D3 :|
